public/images/appstore.svg

<svg width="187" height="55" viewBox="0 0 187 55" fill="none" xmlns="http://www.w3.org/2000/svg">
    <rect x="0.0769043" width="186.154" height="55" rx="4.71176" fill="white"/>
    <path fill-rule="evenodd" clip-rule="evenodd" d="M71.5294 42.2397H74.6581L67.809 23.358H64.6408L57.7917 42.2397H60.8153L62.5638 37.2281H69.7941L71.5294 42.2397ZM66.0738 26.7857H66.2973L69.0448 34.7676H63.3131L66.0738 26.7857ZM82.9542 27.7545C81.0086 27.7545 79.3259 28.7228 78.4583 30.3454H78.2479V27.9901H75.5267V46.8587H78.3531V40.0806H78.5766C79.3259 41.5854 80.9429 42.4752 82.9805 42.4752C86.5956 42.4752 88.8962 39.6358 88.8962 35.1083C88.8962 30.5809 86.5956 27.7545 82.9542 27.7545ZM82.1518 39.9498C79.7855 39.9498 78.3 38.0918 78.3 35.1215C78.3 32.1381 79.7855 30.28 82.165 30.28C84.5575 30.28 85.9905 32.0988 85.9905 35.1084C85.9905 38.131 84.5575 39.9498 82.1518 39.9498ZM97.6126 27.7545C95.667 27.7545 93.9843 28.7228 93.1167 30.3454H92.9064V27.9901H90.1851V46.8587H93.0115V40.0806H93.235C93.9843 41.5854 95.6013 42.4752 97.6389 42.4752C101.254 42.4752 103.555 39.6358 103.555 35.1083C103.555 30.5809 101.254 27.7545 97.6126 27.7545ZM96.8108 39.9498C94.4445 39.9498 92.959 38.0918 92.959 35.1215C92.959 32.1381 94.4445 30.28 96.8239 30.28C99.2165 30.28 100.649 32.0988 100.649 35.1084C100.649 38.131 99.2165 39.9498 96.8108 39.9498ZM109.538 37.1626C109.748 40.5385 112.575 42.6976 116.782 42.6976C121.278 42.6976 124.091 40.4338 124.091 36.8224C124.091 33.9829 122.487 32.4127 118.596 31.5099L116.506 30.9995C114.034 30.4238 113.035 29.6518 113.035 28.304C113.035 26.603 114.586 25.4907 116.913 25.4907C119.122 25.4907 120.647 26.5768 120.923 28.3171H123.788C123.618 25.1374 120.804 22.8999 116.952 22.8999C112.811 22.8999 110.051 25.1374 110.051 28.5003C110.051 31.2743 111.615 32.923 115.046 33.7212L117.491 34.3101C120.002 34.8989 121.107 35.7625 121.107 37.2018C121.107 38.8767 119.371 40.0936 117.005 40.0936C114.468 40.0936 112.706 38.9552 112.457 37.1626H109.538ZM126.523 24.5355V28.0554H124.17V30.4238H126.523V38.4711C126.523 41.2189 127.772 42.3181 130.914 42.3181C131.466 42.3181 131.979 42.2526 132.426 42.1741V39.8319C132.032 39.8712 131.808 39.8973 131.374 39.8973C129.968 39.8973 129.35 39.2431 129.35 37.7514V30.4238H132.557V28.0554H129.35V24.5355H126.523ZM139.564 40.0151C137.106 40.0151 135.726 38.2224 135.726 35.1082C135.726 32.0201 137.106 30.2144 139.564 30.2144C142.01 30.2144 143.403 32.0201 143.403 35.1082C143.403 38.2094 142.01 40.0151 139.564 40.0151ZM139.564 42.5145C143.745 42.5145 146.308 39.7274 146.308 35.1083C146.308 30.5155 143.732 27.7153 139.564 27.7153C135.384 27.7153 132.807 30.5155 132.807 35.1083C132.807 39.7274 135.371 42.5145 139.564 42.5145ZM147.598 42.2397H150.424V33.826C150.424 31.824 151.936 30.4762 154.066 30.4762C154.539 30.4762 155.407 30.5678 155.63 30.6463V27.8723C155.328 27.7938 154.789 27.7545 154.381 27.7545C152.515 27.7545 150.937 28.7752 150.53 30.1753H150.319V27.9901H147.598V42.2397ZM161.994 30.1101C164.084 30.1101 165.451 31.5625 165.517 33.8001H158.286C158.444 31.5756 159.903 30.1101 161.994 30.1101ZM165.504 38.3927C164.978 39.5049 163.808 40.1199 162.099 40.1199C159.838 40.1199 158.379 38.5366 158.287 36.0374V35.8804H168.396V34.899C168.396 30.4239 165.99 27.7153 162.007 27.7153C157.971 27.7153 155.408 30.6071 155.408 35.1607C155.408 39.7143 157.919 42.5145 162.02 42.5145C165.294 42.5145 167.581 40.9443 168.225 38.3927H165.504Z" fill="#151917"/>
    <path fill-rule="evenodd" clip-rule="evenodd" d="M60.4404 8.61887V17.6102H63.7019C66.3937 17.6102 67.9524 15.9589 67.9524 13.0865C67.9524 10.2576 66.3812 8.61887 63.7019 8.61887H60.4404ZM61.8426 9.88986H63.5453C65.4171 9.88986 66.5251 11.0737 66.5251 13.105C66.5251 15.1675 65.4358 16.3389 63.5453 16.3389H61.8426V9.88986ZM72.8866 16.5509C71.716 16.5509 71.0587 15.6972 71.0587 14.2143C71.0587 12.7437 71.716 11.8839 72.8866 11.8839C74.051 11.8839 74.7145 12.7437 74.7145 14.2143C74.7145 15.691 74.051 16.5509 72.8866 16.5509ZM72.8865 17.7407C74.8772 17.7407 76.0979 16.4135 76.0979 14.2139C76.0979 12.0269 74.871 10.6935 72.8865 10.6935C70.8959 10.6935 69.6689 12.0269 69.6689 14.2139C69.6689 16.4135 70.8896 17.7407 72.8865 17.7407ZM86.6472 10.8241H85.3013L84.0868 16.002H83.9804L82.5782 10.8241H81.2886L79.8864 16.002H79.7862L78.5655 10.8241H77.2008L79.0788 17.6096H80.4623L81.8645 12.6124H81.971L83.3795 17.6096H84.7754L86.6472 10.8241ZM88.3572 17.6098H89.7031V13.6407C89.7031 12.5814 90.3667 11.921 91.4497 11.921C92.4513 11.921 92.9395 12.463 92.9395 13.5535V17.6098H94.2854V13.217C94.2854 11.6032 93.4278 10.6935 91.9066 10.6935C90.88 10.6935 90.085 11.1483 89.7532 11.9023H89.653V10.8243H88.3572V17.6098ZM96.5595 17.61H97.9054V8.17627H96.5595V17.61ZM103.121 16.5509C101.951 16.5509 101.293 15.6972 101.293 14.2143C101.293 12.7437 101.951 11.8839 103.121 11.8839C104.286 11.8839 104.949 12.7437 104.949 14.2143C104.949 15.691 104.286 16.5509 103.121 16.5509ZM103.121 17.7407C105.112 17.7407 106.333 16.4135 106.333 14.2139C106.333 12.0269 105.106 10.6935 103.121 10.6935C101.13 10.6935 99.9035 12.0269 99.9035 14.2139C99.9035 16.4135 101.124 17.7407 103.121 17.7407ZM110.497 16.5941C109.764 16.5941 109.232 16.2389 109.232 15.6283C109.232 15.0301 109.658 14.7124 110.597 14.65L112.262 14.5441V15.1111C112.262 15.9523 111.511 16.5941 110.497 16.5941ZM110.152 17.722C111.048 17.722 111.793 17.3357 112.2 16.6565H112.306V17.6098H113.602V12.974C113.602 11.5409 112.638 10.6935 110.929 10.6935C109.383 10.6935 108.281 11.4412 108.143 12.6064H109.445C109.595 12.1266 110.115 11.8524 110.866 11.8524C111.786 11.8524 112.262 12.2574 112.262 12.974V13.5597L110.415 13.6656C108.794 13.7653 107.88 14.4694 107.88 15.6907C107.88 16.9307 108.838 17.722 110.152 17.722ZM118.329 17.7221C119.268 17.7221 120.063 17.2797 120.47 16.5382H120.577V17.61H121.866V8.17627H120.52V11.9024H120.42C120.051 11.1547 119.262 10.7123 118.329 10.7123C116.608 10.7123 115.5 12.0706 115.5 14.2141C115.5 16.3638 116.595 17.7221 118.329 17.7221ZM118.711 11.9143C119.838 11.9143 120.545 12.8054 120.545 14.2198C120.545 15.6405 119.844 16.519 118.711 16.519C117.572 16.519 116.89 15.6529 116.89 14.2136C116.89 12.7867 117.578 11.9143 118.711 11.9143ZM130.907 16.5509C129.737 16.5509 129.079 15.6972 129.079 14.2143C129.079 12.7437 129.737 11.8839 130.907 11.8839C132.072 11.8839 132.735 12.7437 132.735 14.2143C132.735 15.691 132.072 16.5509 130.907 16.5509ZM130.908 17.7407C132.899 17.7407 134.12 16.4135 134.12 14.2139C134.12 12.0269 132.893 10.6935 130.908 10.6935C128.918 10.6935 127.691 12.0269 127.691 14.2139C127.691 16.4135 128.911 17.7407 130.908 17.7407ZM136.055 17.6098H137.401V13.6407C137.401 12.5814 138.065 11.921 139.148 11.921C140.149 11.921 140.637 12.463 140.637 13.5535V17.6098H141.983V13.217C141.983 11.6032 141.126 10.6935 139.605 10.6935C138.578 10.6935 137.783 11.1483 137.451 11.9023H137.351V10.8243H136.055V17.6098ZM148.496 9.17922V10.8553H147.376V11.9832H148.496V15.8152C148.496 17.1237 149.091 17.6471 150.587 17.6471C150.85 17.6471 151.094 17.6159 151.307 17.5786V16.4632C151.119 16.4819 151.013 16.4944 150.806 16.4944C150.136 16.4944 149.842 16.1828 149.842 15.4725V11.9832H151.37V10.8553H149.842V9.17922H148.496ZM153.286 17.61H154.632V13.6471C154.632 12.6189 155.315 11.9273 156.417 11.9273C157.431 11.9273 157.938 12.4756 157.938 13.5598V17.61H159.284V13.2296C159.284 11.6158 158.407 10.6998 156.873 10.6998C155.847 10.6998 155.058 11.1547 154.726 11.9148H154.62V8.17627H153.286V17.61ZM164.299 11.8338C165.295 11.8338 165.946 12.5254 165.977 13.5909H162.534C162.609 12.5316 163.304 11.8338 164.299 11.8338ZM165.971 15.7779C165.72 16.3076 165.163 16.6004 164.349 16.6004C163.273 16.6004 162.578 15.8465 162.534 14.6563V14.5816H167.348V14.1143C167.348 11.9833 166.202 10.6935 164.305 10.6935C162.384 10.6935 161.163 12.0705 161.163 14.2389C161.163 16.4073 162.359 17.7407 164.312 17.7407C165.87 17.7407 166.96 16.993 167.266 15.7779H165.971Z" fill="#151917"/>
    <path fill-rule="evenodd" clip-rule="evenodd" d="M41.5307 27.7622C41.4894 23.1982 45.2852 20.9778 45.4587 20.8744C43.3091 17.7548 39.9771 17.3285 38.8063 17.2945C36.0078 17.0014 33.2934 18.9613 31.8678 18.9613C30.4139 18.9613 28.2187 17.3229 25.8527 17.371C22.8082 17.4177 19.96 19.1723 18.3979 21.8968C15.1741 27.4521 17.5784 35.6158 20.6671 40.1062C22.2121 42.3068 24.0175 44.7608 26.3806 44.6744C28.6924 44.581 29.556 43.2074 32.3459 43.2074C35.1101 43.2074 35.9211 44.6744 38.3311 44.6178C40.8122 44.581 42.3743 42.4101 43.8653 40.1897C45.6508 37.6719 46.3678 35.1867 46.3963 35.0593C46.3394 35.0408 41.5791 33.2325 41.5307 27.7622Z" fill="#151917"/>
    <path fill-rule="evenodd" clip-rule="evenodd" d="M36.9784 14.3402C38.2218 12.7924 39.0726 10.6867 38.8364 8.5498C37.0367 8.62911 34.7861 9.78887 33.49 11.3027C32.3433 12.6366 31.319 14.823 31.5836 16.8792C33.6052 17.0293 35.6809 15.8639 36.9784 14.3402Z" fill="#151917"/>
</svg>

<svg xmlns="http://www.w3.org/2000/svg" width="187" height="55" fill="none"><rect width="186.154" height="55" x=".077" fill="#fff" rx="4.712"/><path fill="#151917" fill-rule="evenodd" d="M71.53 42.24h3.128L67.81 23.358h-3.168L57.79 42.24h3.024l1.749-5.012h7.23zm-5.456-15.454h.223l2.748 7.982h-5.732zm16.88.968c-1.945 0-3.628.969-4.496 2.591h-.21V27.99h-2.721V46.86h2.826V40.08h.224c.749 1.504 2.366 2.394 4.404 2.394 3.615 0 5.915-2.84 5.915-7.367s-2.3-7.353-5.942-7.353m-.802 12.196c-2.367 0-3.852-1.858-3.852-4.829 0-2.983 1.486-4.841 3.865-4.841 2.392 0 3.825 1.819 3.825 4.828 0 3.023-1.432 4.842-3.838 4.842m15.46-12.196c-1.945 0-3.628.969-4.495 2.591h-.21V27.99h-2.722V46.86h2.826V40.08h.224c.75 1.504 2.366 2.394 4.404 2.394 3.615 0 5.916-2.84 5.916-7.367s-2.301-7.353-5.942-7.353m-.801 12.196c-2.367 0-3.852-1.858-3.852-4.829 0-2.983 1.486-4.841 3.865-4.841 2.392 0 3.825 1.819 3.825 4.828 0 3.023-1.433 4.842-3.838 4.842m12.727-2.787c.21 3.376 3.037 5.535 7.244 5.535 4.496 0 7.309-2.264 7.309-5.876 0-2.84-1.604-4.41-5.495-5.312l-2.09-.51c-2.472-.576-3.471-1.348-3.471-2.696 0-1.701 1.551-2.813 3.878-2.813 2.209 0 3.734 1.086 4.01 2.826h2.865c-.17-3.18-2.984-5.417-6.836-5.417-4.141 0-6.901 2.237-6.901 5.6 0 2.774 1.564 4.423 4.995 5.221l2.445.59c2.511.588 3.616 1.452 3.616 2.89 0 1.676-1.736 2.893-4.102 2.893-2.537 0-4.299-1.139-4.548-2.931zm16.985-12.627v3.52h-2.353v2.368h2.353v8.047c0 2.748 1.249 3.847 4.391 3.847.552 0 1.065-.065 1.512-.144v-2.342c-.394.04-.618.065-1.052.065-1.406 0-2.024-.654-2.024-2.146v-7.327h3.207v-2.369h-3.207v-3.52zm13.041 15.48c-2.458 0-3.838-1.794-3.838-4.908 0-3.088 1.38-4.894 3.838-4.894 2.446 0 3.839 1.806 3.839 4.894 0 3.101-1.393 4.907-3.839 4.907m0 2.499c4.181 0 6.744-2.788 6.744-7.407 0-4.592-2.576-7.393-6.744-7.393-4.18 0-6.757 2.8-6.757 7.393 0 4.62 2.564 7.407 6.757 7.407m8.034-.275h2.826v-8.414c0-2.002 1.512-3.35 3.642-3.35.473 0 1.341.092 1.564.17v-2.774c-.302-.078-.841-.117-1.249-.117-1.866 0-3.444 1.02-3.851 2.42h-.211V27.99h-2.721zm14.396-12.13c2.09 0 3.457 1.453 3.523 3.69h-7.231c.158-2.224 1.617-3.69 3.708-3.69m3.51 8.283c-.526 1.112-1.696 1.727-3.405 1.727-2.261 0-3.72-1.583-3.812-4.083v-.157h10.109V34.9c0-4.475-2.406-7.184-6.389-7.184-4.036 0-6.599 2.892-6.599 7.446 0 4.553 2.511 7.353 6.612 7.353 3.274 0 5.561-1.57 6.205-4.121zM60.44 8.619v8.991h3.262c2.692 0 4.25-1.651 4.25-4.523 0-2.83-1.57-4.468-4.25-4.468zm1.403 1.27h1.702c1.872 0 2.98 1.185 2.98 3.216 0 2.063-1.09 3.234-2.98 3.234h-1.702zm11.044 6.662c-1.171 0-1.828-.854-1.828-2.337 0-1.47.657-2.33 1.828-2.33 1.164 0 1.828.86 1.828 2.33 0 1.477-.664 2.337-1.828 2.337m0 1.19c1.99 0 3.21-1.328 3.21-3.527 0-2.187-1.226-3.52-3.21-3.52-1.991 0-3.218 1.333-3.218 3.52 0 2.2 1.22 3.527 3.218 3.527m13.76-6.917h-1.346l-1.214 5.178h-.107l-1.402-5.178h-1.29l-1.402 5.178h-.1l-1.22-5.178H77.2l1.878 6.786h1.383l1.403-4.998h.106l1.408 4.998h1.396zm1.71 6.786h1.346v-3.97c0-1.059.664-1.719 1.747-1.719 1.001 0 1.49.542 1.49 1.633v4.056h1.345v-4.393c0-1.614-.857-2.524-2.378-2.524-1.027 0-1.822.455-2.154 1.21h-.1v-1.079h-1.296zm8.203 0h1.345V8.176H96.56zm6.561-1.06c-1.17 0-1.828-.853-1.828-2.336 0-1.47.658-2.33 1.828-2.33 1.165 0 1.828.86 1.828 2.33 0 1.477-.663 2.337-1.828 2.337m0 1.19c1.991 0 3.212-1.326 3.212-3.526 0-2.187-1.227-3.52-3.212-3.52-1.991 0-3.218 1.333-3.218 3.52 0 2.2 1.221 3.527 3.218 3.527m7.376-1.146c-.733 0-1.265-.355-1.265-.966 0-.598.426-.916 1.365-.978l1.665-.106v.567c0 .841-.751 1.483-1.765 1.483m-.345 1.128c.896 0 1.641-.386 2.048-1.065h.106v.953h1.296v-4.636c0-1.433-.964-2.28-2.673-2.28-1.546 0-2.648.747-2.786 1.912h1.302c.15-.48.67-.754 1.421-.754.92 0 1.396.405 1.396 1.122v.586l-1.847.106c-1.621.1-2.535.803-2.535 2.025 0 1.24.958 2.031 2.272 2.031m8.177 0c.939 0 1.734-.442 2.141-1.184h.107v1.072h1.289V8.176h-1.346v3.726h-.1c-.369-.747-1.158-1.19-2.091-1.19-1.721 0-2.829 1.359-2.829 3.502 0 2.15 1.095 3.508 2.829 3.508m.382-5.808c1.127 0 1.834.891 1.834 2.306 0 1.42-.701 2.299-1.834 2.299-1.139 0-1.821-.866-1.821-2.305 0-1.427.688-2.3 1.821-2.3m12.196 4.637c-1.17 0-1.828-.854-1.828-2.337 0-1.47.658-2.33 1.828-2.33 1.165 0 1.828.86 1.828 2.33 0 1.477-.663 2.337-1.828 2.337m.001 1.19c1.991 0 3.212-1.328 3.212-3.527 0-2.187-1.227-3.52-3.212-3.52-1.99 0-3.217 1.333-3.217 3.52 0 2.2 1.22 3.527 3.217 3.527m5.147-.131h1.346v-3.97c0-1.059.664-1.719 1.747-1.719 1.001 0 1.489.542 1.489 1.633v4.056h1.346v-4.393c0-1.614-.857-2.524-2.378-2.524-1.027 0-1.822.455-2.154 1.21h-.1v-1.079h-1.296zm12.441-8.43v1.675h-1.12v1.128h1.12v3.832c0 1.309.595 1.832 2.091 1.832.263 0 .507-.031.72-.068v-1.116c-.188.019-.294.031-.501.031-.67 0-.964-.311-.964-1.021v-3.49h1.528v-1.128h-1.528V9.18zm4.79 8.43h1.346v-3.963c0-1.028.683-1.72 1.785-1.72 1.014 0 1.521.549 1.521 1.633v4.05h1.346v-4.38c0-1.614-.877-2.53-2.411-2.53-1.026 0-1.815.455-2.147 1.215h-.106V8.176h-1.334zm11.013-5.776c.996 0 1.647.691 1.678 1.757h-3.443c.075-1.06.77-1.757 1.765-1.757m1.672 3.944c-.251.53-.808.822-1.622.822-1.076 0-1.771-.754-1.815-1.944v-.074h4.814v-.468c0-2.13-1.146-3.42-3.043-3.42-1.921 0-3.142 1.376-3.142 3.545s1.196 3.502 3.149 3.502c1.558 0 2.648-.748 2.954-1.963zM41.53 27.762c-.04-4.564 3.755-6.784 3.929-6.888-2.15-3.12-5.482-3.546-6.653-3.58-2.798-.293-5.513 1.667-6.938 1.667-1.454 0-3.65-1.638-6.015-1.59-3.045.047-5.893 1.801-7.455 4.526-3.224 5.555-.82 13.719 2.27 18.21 1.544 2.2 3.35 4.654 5.713 4.567 2.311-.093 3.175-1.467 5.965-1.467 2.764 0 3.575 1.467 5.985 1.41 2.481-.036 4.043-2.207 5.534-4.427 1.786-2.518 2.503-5.003 2.531-5.13-.057-.02-4.817-1.828-4.865-7.298M36.978 14.34c1.244-1.548 2.095-3.653 1.858-5.79-1.8.08-4.05 1.239-5.346 2.753-1.147 1.334-2.171 3.52-1.906 5.576 2.021.15 4.097-1.015 5.394-2.539" clip-rule="evenodd"/></svg>
